svgs/sharp-solid/litecoin-sign.svg

<svg xmlns="http://www.w3.org/2000/svg" viewBox="0 0 384 512"><!--! Font Awesome Pro 6.6.0 by @fontawesome - https://fontawesome.com License - https://fontawesome.com/license (Commercial License) Copyright 2024 Fonticons, Inc. --><path d="M128 64l0-32L64 32l0 32 0 149.6L23.2 225.2-7.6 234 10 295.6l30.8-8.8L64 280.1 64 448l0 32 32 0 256 0 32 0 0-64-32 0-224 0 0-154.1 136.8-39.1 30.8-8.8L278 152.4l-30.8 8.8L128 195.3 128 64z"/></svg>

<svg xmlns="http://www.w3.org/2000/svg" viewBox="0 0 384 512"><!--! Font Awesome Pro 6.4.0 by @fontawesome - https://fontawesome.com License - https://fontawesome.com/license (Commercial License) Copyright 2023 Fonticons, Inc. --><path d="M128 64V32H64V64 213.6L23.2 225.2-7.6 234 10 295.6l30.8-8.8L64 280.1V448v32H96 352h32V416H352 128V261.9l136.8-39.1 30.8-8.8L278 152.4l-30.8 8.8L128 195.3V64z"/></svg>
